X:1287
T: Halling efter Niklas Olsson
R: Halling
O: Bohuslän
N: Från [[http://www.granquist.de/bohus1/hallnio2.pdf|Granquist]].
S: Efter Niklas Olsson
Z: Jonas Brunskog
Q: 1/4=80
M: 2/4
L: 1/16
K: D
|:a2ag (ba)fa | (ag)eg f2df | a2ag (ba)fa | (ag)ec d4:| 
|:(Ac)eg f2f2 | (ec)ed B2B2 | (Ac)eg (fd)fa |[1(ag)(ec) d2d2:|[2 (ag)ec d4 |] 
(:musicend:)

(:music:)
